svgs/solid/light-switch-on.svg

<svg xmlns="http://www.w3.org/2000/svg" viewBox="0 0 384 512"><!-- Font Awesome Pro 6.0.0-alpha2 by @fontawesome - https://fontawesome.com License - https://fontawesome.com/license (Commercial License) --><path d="M320 0H64C28.625 0 0 28.625 0 64V448C0 483.375 28.625 512 64 512H320C355.375 512 384 483.375 384 448V64C384 28.625 355.375 0 320 0ZM192 32C200.875 32 208 39.125 208 48S200.875 64 192 64S176 56.875 176 48S183.125 32 192 32ZM192 480C183.125 480 176 472.875 176 464S183.125 448 192 448S208 455.125 208 464S200.875 480 192 480ZM288 240V368C288 394.5 266.5 416 240 416H144C117.5 416 96 394.5 96 368V144C96 117.5 117.5 96 144 96H240C266.5 96 288 117.5 288 144V240ZM224 128H160C142.375 128 128 142.375 128 160V256H256V160C256 142.375 241.625 128 224 128Z"/></svg>

<svg xmlns="http://www.w3.org/2000/svg" viewBox="0 0 384 512"><!--! Font Awesome Pro 6.0.0-alpha3 by @fontawesome - https://fontawesome.com License - https://fontawesome.com/license (Commercial License) --><path d="M320 0H64c-35.38 0-64 28.62-64 64v384c0 35.38 28.62 64 64 64h256c35.38 0 64-28.62 64-64v-384C384 28.62 355.4 0 320 0zM192 32c8.875 0 16 7.125 16 16S200.9 64 192 64S176 56.88 176 48S183.1 32 192 32zM192 480c-8.875 0-16-7.125-16-16S183.1 448 192 448s16 7.125 16 16S200.9 480 192 480zM288 240v127.1c0 26.5-21.5 48-48 48h-96c-26.5 0-48-21.5-48-48V143.1c0-26.5 21.5-48 48-48h96c26.5 0 48 21.5 48 48V240zM224 128H160C142.4 128 128 142.4 128 160v96h128V160C256 142.4 241.6 128 224 128z"/></svg>
